icons/svg/shopping/tyres.svg

<?xml version="1.0" encoding="UTF-8" standalone="no"?>
<!-- Created with Inkscape (http://www.inkscape.org/) -->

<svg
   xmlns:dc="http://purl.org/dc/elements/1.1/"
   xmlns:cc="http://creativecommons.org/ns#"
   xmlns:rdf="http://www.w3.org/1999/02/22-rdf-syntax-ns#"
   xmlns:svg="http://www.w3.org/2000/svg"
   xmlns="http://www.w3.org/2000/svg"
   xmlns:sodipodi="http://sodipodi.sourceforge.net/DTD/sodipodi-0.dtd"
   xmlns:inkscape="http://www.inkscape.org/namespaces/inkscape"
   version="1.0"
   width="580"
   height="580"
   id="svg2"
   sodipodi:version="0.32"
   inkscape:version="0.48.4 r9939"
   sodipodi:docname="service_tyres.svg"
   inkscape:output_extension="org.inkscape.output.svg.inkscape">
  <metadata
     id="metadata10">
    <rdf:RDF>
      <cc:Work
         rdf:about="">
        <dc:format>image/svg+xml</dc:format>
        <dc:type
           rdf:resource="http://purl.org/dc/dcmitype/StillImage" />
        <cc:license
           rdf:resource="http://web.resource.org/cc/PublicDomain" />
        <dc:language>en</dc:language>
        <dc:title />
      </cc:Work>
    </rdf:RDF>
  </metadata>
  <sodipodi:namedview
     inkscape:window-height="739"
     inkscape:window-width="1324"
     inkscape:pageshadow="2"
     inkscape:pageopacity="0.0"
     guidetolerance="10.0"
     gridtolerance="10.0"
     objecttolerance="10.0"
     borderopacity="1.0"
     bordercolor="#666666"
     pagecolor="#ffffff"
     id="base"
     showgrid="false"
     inkscape:zoom="0.70710678"
     inkscape:cx="319.6201"
     inkscape:cy="284.01125"
     inkscape:window-x="42"
     inkscape:window-y="1024"
     inkscape:current-layer="svg2"
     inkscape:window-maximized="1" />
  <defs
     id="defs4">
    <clipPath
       id="clipoutline2"
       clipPathUnits="userSpaceOnUse">
      <path
         d="M 55.8,12 L 56.56,12.16 C 65.4,9.22 85.24,20.8 80.82,31.12 C 79.7,32.74 79.89,35.62 81.24,37.43 L 56.43,62.25 C 55.04,60.86 51.95,60.89 50.53,62.25 L 9.5,101.63 C 5.76,105.22 8.7,108.27 10.28,109.88 L 17.64,117.24 C 19.25,118.84 23.5,121 26.52,117.8 L 65.24,76.99 C 66.59,75.57 66.6,72.52 65.24,71.12 C 65.24,71.12 65.25,71.1 65.24,71.1 L 90.15,46.2 C 92.78,48.57 95.263827,48.774854 97.62,48.13 C 102.17057,46.884568 104.70725,51.336643 107.43,54.59 L 106.2,55.8 C 104.38,57.64 104.55,60.74 106.59,62.78 C 108.63,64.82 111.74,64.99 113.56,63.17 L 121.7,55.04 C 123.52,53.2 123.35,50.1 121.3,48.07 C 119.46,46.22 116.79,45.98 114.93,47.3 C 109.35,41.04 112.28,40.1 104.92,31.95 L 91.13,17.86 C 81.2,8.12 68.3,8.13 55.8,12 z"
         id="outline2" />
    </clipPath>
    <clipPath
       id="clipoutline1"
       clipPathUnits="userSpaceOnUse">
      <path
         d="M 22.42,17.2 L 35.38,30.15 L 32.88,38.93 L 24.1,41.43 L 11.14,28.47 L 5.28,34.33 L 20.17,55.79 L 37.73,52.45 L 99.36,118.07 C 108.8,127.58 121.53,113.32 112.7,105.2 L 46.85,42.92 L 50.86,25.16 L 28.72,10.89 L 22.42,17.2 z M 103.48,109.17 C 105.16,107.49 107.88,107.49 109.56,109.17 C 111.24,110.85 111.24,113.57 109.56,115.25 C 107.88,116.92 105.16,116.92 103.48,115.25 C 101.8,113.57 101.8,110.85 103.48,109.17 z"
         id="outline1" />
    </clipPath>
    <inkscape:perspective
       sodipodi:type="inkscape:persp3d"
       inkscape:vp_x="0 : 290 : 1"
       inkscape:vp_y="0 : 1000 : 0"
       inkscape:vp_z="580 : 290 : 1"
       inkscape:persp3d-origin="290 : 193.33333 : 1"
       id="perspective12" />
    <style
       type="text/css"
       id="style6">
   
    .fil0 {fill:#EF7900}
   
  </style>
    <inkscape:perspective
       id="perspective6807"
       inkscape:persp3d-origin="29.116032 : 19.410688 : 1"
       inkscape:vp_z="58.232063 : 29.116032 : 1"
       inkscape:vp_y="0 : 1000 : 0"
       inkscape:vp_x="0 : 29.116032 : 1"
       sodipodi:type="inkscape:persp3d" />
    <inkscape:perspective
       id="perspective6954"
       inkscape:persp3d-origin="290 : 193.33333 : 1"
       inkscape:vp_z="580 : 290 : 1"
       inkscape:vp_y="0 : 1000 : 0"
       inkscape:vp_x="0 : 290 : 1"
       sodipodi:type="inkscape:persp3d" />
    <marker
       viewBox="0 0 10 10"
       refY="5"
       refX="10"
       orient="auto"
       markerWidth="4"
       markerUnits="strokeWidth"
       markerHeight="3"
       id="ArrowStart">
      <path
         id="path2295"
         d="M 10 0 L 0 5 L 10 10 z" />
    </marker>
    <marker
       viewBox="0 0 10 10"
       refY="5"
       refX="0"
       orient="auto"
       markerWidth="4"
       markerUnits="strokeWidth"
       markerHeight="3"
       id="ArrowEnd">
      <path
         id="path2292"
         d="M 0 0 L 10 5 L 0 10 z" />
    </marker>
    <inkscape:perspective
       id="perspective7597"
       inkscape:persp3d-origin="178.5405 : 158.483 : 1"
       inkscape:vp_z="357.08099 : 237.7245 : 1"
       inkscape:vp_y="0 : 1000 : 0"
       inkscape:vp_x="0 : 237.7245 : 1"
       sodipodi:type="inkscape:persp3d" />
  </defs>
  <g
     id="g1327"
     transform="translate(0.5,-0.5)">
    <path
       d="M 66.275,1.768 C 24.94,1.768 1.704,23.139 1.704,66.804 l 0,450.123 c 0,40.844 20.894,62.229 62.192,62.229 l 452.024,0 c 41.307,0 62.229,-20.316 62.229,-62.229 l 0,-450.123 c 0,-42.601 -20.922,-65.036 -63.522,-65.036 -0.003,0 -448.494,-0.143 -448.352,0 z"
       style="fill:#111111;stroke:#eeeeee;stroke-width:3.40799999"
       id="path1329"
       inkscape:connector-curvature="0" />
  </g>
  <g
     id="g2319"
     transform="translate(879.29125,36.805119)">
    <path
       id="path2323"
       style="fill:#ffffff;stroke:none"
       d="" />
  </g>
  <g
     id="g2325"
     transform="translate(879.29125,36.805119)">
    <path
       id="path2329"
       style="fill:#ffffff;stroke:none"
       d="" />
  </g>
  <path
     style="color:#000000;fill:#ffffff;fill-opacity:1;fill-rule:nonzero;stroke:none;stroke-width:19.89999962;marker:none;visibility:visible;display:inline;overflow:visible;enable-background:accumulate"
     d="m 256.58073,54.122295 c -2.79642,0.0083 -5.34492,0.04904 -7.56114,0.06691 -1.16806,4.809225 -5.46057,8.364089 -10.63912,8.364089 l -26.46398,0 c -8.91056,4.689904 -17.24097,11.304102 -24.92499,19.638883 l 10.00345,0 c 6.08123,0 10.97369,4.892455 10.97369,10.973684 0,6.08124 -4.89246,10.973689 -10.97369,10.973689 l -26.36361,0 c -7.93585,12.9919 -14.84862,28.27257 -20.57566,45.50065 l 22.31539,0 c 6.08123,0 10.97369,4.89245 10.97369,10.97368 0,6.08123 -4.89246,10.97369 -10.97369,10.97369 l -28.70555,0 c -4.36647,17.27225 -7.6861,36.07875 -9.83617,56.20668 l 27.83569,0 c 6.08123,0 10.97368,4.89246 10.97368,10.97369 0,6.08123 -4.89245,10.97368 -10.97368,10.97368 l -28.77247,0 c -0.30189,0 -0.60773,-0.01 -0.90332,-0.0335 -0.55119,8.83996 -0.88642,17.87898 -1.00369,27.1331 -0.18855,14.87792 0.16596,29.63519 1.03714,44.09548 l 26.43053,0 c 6.08123,0 10.97368,4.89246 10.97368,10.97369 0,6.08123 -4.89245,10.97369 -10.97368,10.97369 l -24.6908,0 c 1.84334,18.44729 4.56629,36.2279 8.19681,52.99487 l 27.20002,0 c 6.08123,0 10.97369,4.89245 10.97369,10.97368 0,6.08124 -4.89246,10.97369 -10.97369,10.97369 l -21.71318,0 c 4.43453,15.78748 9.75904,30.35859 15.95869,43.35944 l 22.88415,0 c 6.08123,0 10.97368,4.89246 10.97368,10.97369 0,6.08123 -4.89245,10.97368 -10.97368,10.97368 l -10.53876,0 c 7.50797,11.28426 15.93378,20.65025 25.29301,27.63495 l 16.62781,0 c 6.08123,0 10.97369,4.89246 10.97369,10.97369 0,0.62164 -0.0689,1.21374 -0.16728,1.80664 4.81289,1.05225 9.79328,1.602 14.95499,1.57245 16.87494,-0.0966 62.22883,0.7695 62.22883,0.7695 0,0 -14.08183,-4.92205 -30.64603,-25.96214 l -27.16656,0 c -6.08123,0 -10.97369,-4.89245 -10.97369,-10.97368 0,-6.08123 4.89246,-10.97369 10.97369,-10.97369 l 12.81378,0 c -4.62732,-8.42675 -9.20138,-18.24703 -13.48291,-29.7427 l -26.43052,0 c -6.08123,0 -10.97369,-4.89245 -10.97369,-10.97369 0,-6.08123 4.89246,-10.97368 10.97369,-10.97368 l 19.2374,0 C 236.08535,412.6557 232.61151,397.213 229.81564,379.71953 l -26.19633,0 c -6.08123,0 -10.97368,-4.89246 -10.97368,-10.97369 0,-6.08123 4.89245,-10.97368 10.97368,-10.97368 l 23.1518,0 c -2.17357,-18.75814 -3.60275,-39.55942 -4.08167,-62.63031 l -27.63496,0 c -6.08123,0 -10.97368,-4.89245 -10.97368,-10.97368 0,-6.08123 4.89245,-10.97369 10.97368,-10.97369 l 27.46767,0 c 0.19679,-21.77563 1.54272,-41.51772 3.74712,-59.41849 l -22.64996,0 c -6.08123,0 -10.97368,-4.89246 -10.97368,-10.97369 0,-6.08123 4.89245,-10.97368 10.97368,-10.97368 l 25.92868,0 c 3.08765,-17.48893 6.99768,-32.9683 11.40862,-46.57125 l -21.27825,0 c -6.08123,0 -10.97368,-4.89246 -10.97368,-10.97369 0,-6.08123 4.89245,-10.97369 10.97368,-10.97369 l 28.77247,0 c 0.21254,0 0.42619,0.0217 0.63567,0.0335 4.21124,-10.0015 8.62198,-18.72817 13.01453,-26.263239 l -15.65758,0 c -6.08123,0 -10.97368,-4.89246 -10.97368,-10.97369 0,-6.08123 4.89245,-10.973686 10.97368,-10.973686 l 28.77247,0 c 0.6174,0 1.21756,0.03678 1.80664,0.133826 12.30883,-15.274945 21.81355,-21.077506 21.81355,-21.077506 0,0 -25.17993,-0.117494 -42.25538,-0.06691 z"
     id="path3015-1-6"
     inkscape:connector-curvature="0" />
  <path
     style="color:#000000;fill:#ffffff;fill-opacity:1;fill-rule:nonzero;stroke:none;stroke-width:19.89999962;marker:none;visibility:visible;display:inline;overflow:visible;enable-background:accumulate"
     d="m 348.36004,54.248242 c -55.60685,0 -100.67018,105.404338 -100.67018,235.432398 0,130.02805 45.06333,235.43239 100.67018,235.43239 55.60686,0 100.70364,-105.40434 100.70364,-235.43239 0,-130.02806 -45.09678,-235.432398 -100.70364,-235.432398 z m 0,110.272158 c 29.5621,0 53.53018,56.03381 53.53018,125.16024 0,69.12642 -23.96808,125.16023 -53.53018,125.16023 -29.5621,0 -53.49672,-56.03381 -53.49672,-125.16023 0,-69.12643 23.93462,-125.16024 53.49672,-125.16024 z"
     id="path3015"
     inkscape:connector-curvature="0" />
  <path
     style="fill:#ffffff;fill-opacity:1;stroke:none"
     d="m 320.02709,221.73601 c 0,0 10.6142,-42.28096 35.23808,-34.78674 12.2157,3.71782 29.08612,65.16392 28.69244,102.56408 -0.5353,50.85367 -13.91785,86.71889 -27.83569,95.81902 -16.01046,10.46838 -33.99166,-41.75354 -33.99166,-41.75354 0,0 11.70695,-27.51301 11.50898,-61.0244 -0.19796,-33.51139 -13.61215,-60.81842 -13.61215,-60.81842 z"
     id="path3865"
     inkscape:connector-curvature="0"
     sodipodi:nodetypes="csssczc" />
</svg>

<svg width="580" height="580" viewBox="0 0 580 580" fill="none" xmlns="http://www.w3.org/2000/svg">
<g clip-path="url(#clip0)">
<path d="M66.7751 1.26863C25.4401 1.26863 2.2041 22.6396 2.2041 66.3046V516.428C2.2041 557.272 23.0981 578.657 64.3961 578.657H516.42C557.727 578.657 578.649 558.341 578.649 516.428V66.3046C578.649 23.7036 557.727 1.26863 515.127 1.26863C515.124 1.26863 66.6331 1.12563 66.7751 1.26863V1.26863Z" fill="#111111" stroke="#EEEEEE" stroke-width="3.408"/>
<path d="M256.581 54.122C253.784 54.1303 251.236 54.1711 249.02 54.1889C247.852 58.9982 243.559 62.553 238.381 62.553H211.917C203.006 67.2429 194.676 73.8571 186.992 82.1919H196.995C203.076 82.1919 207.969 87.0844 207.969 93.1656C207.969 99.2468 203.076 104.139 196.995 104.139H170.632C162.696 117.131 155.783 132.412 150.056 149.64H172.371C178.452 149.64 183.345 154.532 183.345 160.614C183.345 166.695 178.452 171.587 172.371 171.587H143.666C139.299 188.86 135.98 207.666 133.83 227.794H161.665C167.746 227.794 172.639 232.686 172.639 238.768C172.639 244.849 167.746 249.741 161.665 249.741H132.893C132.591 249.741 132.285 249.731 131.989 249.708C131.438 258.548 131.103 267.587 130.986 276.841C130.797 291.719 131.152 306.476 132.023 320.936H158.453C164.535 320.936 169.427 325.829 169.427 331.91C169.427 337.991 164.535 342.884 158.453 342.884H133.763C135.606 361.331 138.329 379.112 141.959 395.879H169.159C175.241 395.879 180.133 400.771 180.133 406.852C180.133 412.934 175.241 417.826 169.159 417.826H147.446C151.881 433.614 157.205 448.185 163.405 461.185H186.289C192.37 461.185 197.263 466.078 197.263 472.159C197.263 478.24 192.37 483.133 186.289 483.133H175.75C183.258 494.417 191.684 503.783 201.043 510.768H217.671C223.752 510.768 228.645 515.66 228.645 521.741C228.645 522.363 228.576 522.955 228.478 523.548C233.29 524.6 238.271 525.15 243.433 525.121C260.308 525.024 305.661 525.89 305.661 525.89C305.661 525.89 291.58 520.968 275.015 499.928H247.849C241.768 499.928 236.875 495.035 236.875 488.954C236.875 482.873 241.768 477.981 247.849 477.981H260.663C256.035 469.554 251.461 459.734 247.18 448.238H220.749C214.668 448.238 209.775 443.345 209.775 437.264C209.775 431.183 214.668 426.29 220.749 426.29H239.987C236.086 412.655 232.612 397.213 229.816 379.719H203.62C197.538 379.719 192.646 374.827 192.646 368.746C192.646 362.664 197.538 357.772 203.62 357.772H226.771C224.598 339.014 223.169 318.212 222.69 295.142H195.055C188.973 295.142 184.081 290.249 184.081 284.168C184.081 278.087 188.973 273.194 195.055 273.194H222.522C222.719 251.419 224.065 231.676 226.269 213.776H203.62C197.538 213.776 192.646 208.883 192.646 202.802C192.646 196.721 197.538 191.828 203.62 191.828H229.548C232.636 174.339 236.546 158.86 240.957 145.257H219.679C213.597 145.257 208.705 140.365 208.705 134.283C208.705 128.202 213.597 123.31 219.679 123.31H248.451C248.664 123.31 248.877 123.331 249.087 123.343C253.298 113.342 257.709 104.615 262.101 97.08H246.444C240.362 97.08 235.47 92.1875 235.47 86.1063C235.47 80.0251 240.362 75.1326 246.444 75.1326H275.216C275.834 75.1326 276.434 75.1694 277.023 75.2664C289.332 59.9915 298.836 54.1889 298.836 54.1889C298.836 54.1889 273.656 54.0714 256.581 54.122V54.122Z" fill="white"/>
<path d="M348.36 54.248C292.753 54.248 247.69 159.652 247.69 289.68C247.69 419.708 292.753 525.113 348.36 525.113C403.967 525.113 449.064 419.708 449.064 289.68C449.064 159.652 403.967 54.248 348.36 54.248V54.248ZM348.36 164.52C377.922 164.52 401.89 220.554 401.89 289.68C401.89 358.807 377.922 414.841 348.36 414.841C318.798 414.841 294.863 358.807 294.863 289.68C294.863 220.554 318.798 164.52 348.36 164.52Z" fill="white"/>
<path d="M320.027 221.736C320.027 221.736 330.642 179.455 355.265 186.949C367.481 190.667 384.352 252.113 383.958 289.513C383.423 340.367 370.04 376.232 356.122 385.332C340.112 395.8 322.13 343.578 322.13 343.578C322.13 343.578 333.837 316.065 333.639 282.554C333.442 249.043 320.027 221.736 320.027 221.736V221.736Z" fill="white"/>
</g>
<defs>
<clipPath id="clip0">
<path d="M0 0H580V580H0V0Z" fill="white"/>
</clipPath>
</defs>
</svg>
